src/app/assets/svg/validation.svg

<?xml version="1.0" encoding="UTF-8"?>
<svg width="24px" height="24px" viewBox="0 0 24 24" version="1.1" xmlns="http://www.w3.org/2000/svg" xmlns:xlink="http://www.w3.org/1999/xlink">
    <!-- Generator: Sketch 55.2 (78181) - https://sketchapp.com -->
    <title>Icon / 24px / id-card-alt-regular</title>
    <desc>Created with Sketch.</desc>
    <g id="Icon-/-24px-/-id-card-alt-regular" stroke="none" stroke-width="1" fill-rule="evenodd">
        <path d="M19.7777778,5.3333333 L14.7777778,5.3333333 L14.7777778,4.22222218 C14.7777778,3.60763885 14.28125,3.11111107 13.6666667,3.11111107 L10.3333333,3.11111107 C9.71874999,3.11111107 9.22222221,3.60763885 9.22222221,4.22222218 L9.22222221,5.3333333 L4.22222218,5.3333333 C2.99652773,5.3333333 1.99999995,6.32986108 1.99999995,7.55555553 L1.99999995,18.6666667 C1.99999995,19.8923612 2.99652773,20.8888889 4.22222218,20.8888889 L19.7777778,20.8888889 C21.0034723,20.8888889 21.9999999,19.8923612 21.9999999,18.6666667 L21.9999999,7.55555553 C21.9999999,6.32986108 21.0034723,5.3333333 19.7777778,5.3333333 Z M10.8888889,4.77777774 L13.1111111,4.77777774 L13.1111111,6.99999997 L10.8888889,6.99999997 L10.8888889,4.77777774 Z M20.3333334,18.6666667 C20.3333334,18.9722223 20.0833334,19.2222223 19.7777778,19.2222223 L15.8611111,19.2222223 C15.8680556,19.1840278 15.8888889,19.1493056 15.8888889,19.1111111 L15.8888889,18.4444445 C15.8888889,17.3402778 14.84375,16.4444445 13.5555556,16.4444445 C13.1805556,16.4444445 12.90625,16.7222222 12,16.7222222 C11.0659722,16.7222222 10.8402778,16.4444445 10.4444444,16.4444445 C9.15624999,16.4444445 8.11111109,17.3402778 8.11111109,18.4444445 L8.11111109,19.1111111 C8.11111109,19.1493056 8.1284722,19.1840278 8.13888887,19.2222223 L4.22222218,19.2222223 C3.91666663,19.2222223 3.66666662,18.9722223 3.66666662,18.6666667 L3.66666662,7.55555553 C3.66666662,7.24999998 3.91666663,6.99999997 4.22222218,6.99999997 L9.22222221,6.99999997 L9.22222221,8.66666665 L14.7777778,8.66666665 L14.7777778,6.99999997 L19.7777778,6.99999997 C20.0833334,6.99999997 20.3333334,7.24999998 20.3333334,7.55555553 L20.3333334,18.6666667 Z M12,10.8888889 C10.7743055,10.8888889 9.77777777,11.8854167 9.77777777,13.1111111 C9.77777777,14.3368056 10.7743055,15.3333334 12,15.3333334 C13.2256945,15.3333334 14.2222222,14.3368056 14.2222222,13.1111111 C14.2222222,11.8854167 13.2256945,10.8888889 12,10.8888889 Z" id="id-card-alt-regular"></path>
    </g>
</svg>

<svg xmlns="http://www.w3.org/2000/svg" width="24" height="24"><defs/><path fill-rule="evenodd" d="M19.778 5.333h-5v-1.11a1.11 1.11 0 00-1.111-1.112h-3.334a1.11 1.11 0 00-1.11 1.111v1.111h-5A2.224 2.224 0 002 7.556v11.11c0 1.226.997 2.223 2.222 2.223h15.556A2.224 2.224 0 0022 18.667V7.556a2.224 2.224 0 00-2.222-2.223zm-8.89-.555h2.223V7H10.89V4.778zm9.445 13.889c0 .305-.25.555-.555.555H15.86c.007-.038.028-.073.028-.11v-.668c0-1.104-1.045-2-2.333-2-.375 0-.65.278-1.556.278-.934 0-1.16-.278-1.556-.278-1.288 0-2.333.896-2.333 2v.667c0 .038.017.073.028.111H4.222a.557.557 0 01-.555-.555V7.556c0-.306.25-.556.555-.556h5v1.667h5.556V7h5c.305 0 .555.25.555.556v11.11zM12 10.889a2.224 2.224 0 00-2.222 2.222c0 1.226.996 2.222 2.222 2.222a2.224 2.224 0 002.222-2.222A2.224 2.224 0 0012 10.89z"/></svg>
